X:37
T:March. RDO.37
M:C|
L:1/8
Q:1/2=60
S:Robert D. Owen MS,Indiana,1826.
R:.march
O:Indiana,USA
A:New Harmony
Z:vmp.Chris Partington
W:a
K:Bb
FG/A/|B2B>B B>df>d|e2c>cc2d>e|(e>d)c>B (dc)BA|(B>A)Bc bfdf|!
B2B>B B>df>d|e2c>cc2d>e|(e>d)c>B (dc)BA|B2B>BB2:|!
|:(B/c/d/e/)|f2f>f f>ba>g|f2f>f f2 (3Bcd |e2e>e (eg)fe|d2d>dd2 (3FGA|
B2B>B B>df>d|e2c>cc2de|(ed)cB (dc)BA|B2B>BB2:|

